X:44
T:Reel de Jos Cormier
Z:robin.beech@mcgill.ca
R:reel
M:4/4
L:1/8
K:D
fed | c2 (3BcB Aced | cAce faef | ggfa gdef | gedB GABd |
c2 (3BcB Aced | cAce faef | gedB GABd | cAGB A ::
z2B | ABcd eaec | ABcd ecBA | GABc dedB | GABc dBGB |
ABcd eaea | geag edef | gedB GABd | cAAG a ::
z2b | AAaA AgAA | fAAe- edef | ggfa gdef | gedB GABG |
AAaA AgAA | fAAe- edef | gedB GABd | cAGB a :|
